src/assets/svg-icons/matric-light-icon.svg

<svg width="39" height="39" viewBox="0 0 39 39" fill="none" xmlns="http://www.w3.org/2000/svg">
<g clip-path="url(#clip0_2905_12958)">
<path fill-rule="evenodd" clip-rule="evenodd" d="M19.5 38.9844C30.2695 38.9844 39 30.4777 39 19.9844C39 9.49096 30.2695 0.984375 19.5 0.984375C8.73044 0.984375 0 9.49096 0 19.9844C0 30.4777 8.73044 38.9844 19.5 38.9844Z" fill="#F5F5F5"/>
<path fill-rule="evenodd" clip-rule="evenodd" d="M15.9348 9.8369C15.9348 9.06996 16.5742 8.44824 17.363 8.44824C22.7089 8.44824 27.0428 12.6621 27.0428 17.8602C27.0428 18.6271 26.4032 19.2488 25.6146 19.2488C24.8259 19.2488 24.1865 18.6271 24.1865 17.8602C24.1865 14.196 21.1314 11.2255 17.363 11.2255C16.5742 11.2255 15.9348 10.6038 15.9348 9.8369Z" fill="#2E3E66"/>
<path fill-rule="evenodd" clip-rule="evenodd" d="M29.9111 16.4717C30.6998 16.4717 31.3392 17.0934 31.3392 17.8603C31.3392 23.0585 27.0056 27.2723 21.6596 27.2723C20.8708 27.2723 20.2314 26.6506 20.2314 25.8836C20.2314 25.1167 20.8708 24.4951 21.6596 24.4951C25.428 24.4951 28.4829 21.5246 28.4829 17.8603C28.4829 17.0934 29.1223 16.4717 29.9111 16.4717Z" fill="#2E3E66"/>
<path fill-rule="evenodd" clip-rule="evenodd" d="M23.0876 30.1316C23.0876 30.8986 22.4482 31.5203 21.6594 31.5203C16.3135 31.5203 11.9797 27.3065 11.9797 22.1082C11.9797 21.3414 12.6192 20.7197 13.4079 20.7197C14.1967 20.7197 14.8361 21.3414 14.8361 22.1082C14.8361 25.7726 17.891 28.743 21.6594 28.743C22.4482 28.743 23.0876 29.3647 23.0876 30.1316Z" fill="#2E3E66"/>
<path fill-rule="evenodd" clip-rule="evenodd" d="M9.0888 23.4969C8.30005 23.4969 7.66064 22.8752 7.66064 22.1083C7.66064 16.9102 11.9944 12.6963 17.3404 12.6963C18.1291 12.6963 18.7685 13.318 18.7685 14.085C18.7685 14.8519 18.1291 15.4736 17.3404 15.4736C13.5719 15.4736 10.517 18.444 10.517 22.1083C10.517 22.8752 9.87756 23.4969 9.0888 23.4969Z" fill="#2E3E66"/>
</g>
<defs>
<clipPath id="clip0_2905_12958">
<rect width="39" height="38" fill="white" transform="translate(0 0.984375)"/>
</clipPath>
</defs>
</svg>

<svg xmlns="http://www.w3.org/2000/svg" width="39" height="39" fill="none" viewBox="0 0 39 39"><g fill-rule="evenodd" clip-path="url(#a)" clip-rule="evenodd"><path fill="#F5F5F5" d="M19.5 38.984c10.77 0 19.5-8.506 19.5-19 0-10.493-8.73-19-19.5-19S0 9.491 0 19.984c0 10.494 8.73 19 19.5 19Z"/><path fill="#2E3E66" d="M15.935 9.837c0-.767.64-1.389 1.428-1.389 5.346 0 9.68 4.214 9.68 9.412 0 .767-.64 1.389-1.428 1.389-.79 0-1.428-.622-1.428-1.389 0-3.664-3.056-6.634-6.824-6.634-.789 0-1.428-.622-1.428-1.39Z"/><path fill="#2E3E66" d="M29.911 16.472c.789 0 1.428.621 1.428 1.388 0 5.198-4.333 9.412-9.68 9.412-.788 0-1.428-.621-1.428-1.388 0-.767.64-1.389 1.429-1.389 3.768 0 6.823-2.97 6.823-6.635 0-.767.64-1.388 1.428-1.388Z"/><path fill="#2E3E66" d="M23.088 30.132c0 .767-.64 1.388-1.429 1.388-5.345 0-9.68-4.213-9.68-9.412 0-.767.64-1.388 1.429-1.388s1.428.621 1.428 1.388c0 3.665 3.055 6.635 6.823 6.635.79 0 1.429.622 1.429 1.389Z"/><path fill="#2E3E66" d="M9.089 23.497c-.789 0-1.428-.622-1.428-1.389 0-5.198 4.333-9.412 9.68-9.412.788 0 1.427.622 1.427 1.389s-.639 1.389-1.428 1.389c-3.768 0-6.823 2.97-6.823 6.634 0 .767-.64 1.389-1.428 1.389Z"/></g><defs><clipPath id="a"><path fill="#fff" d="M0 .984h39v38H0z"/></clipPath></defs></svg>
